;FLAVOR:Marlin
;TIME:6490
;Filament used: 2.11836m
;Layer height: 0.1
;MINX:100.2
;MINY:100.2
;MINZ:0.2
;MAXX:119.8
;MAXY:119.8
;MAXZ:20
;Generated with Cura_SteamEngine 4.8.0
M140 S60
M105
M190 S60
M104 S200
M105
M109 S200
M82 ;absolute extrusion mode
; Ender 3 Custom Start G-code
G92 E0 ; Reset Extruder
G28 ; Home all axes
G1 Z2.0 F3000 ; Move Z Axis up little to prevent scratching of Heat Bed
G1 X0.1 Y20 Z0.3 F5000.0 ; Move to start position
G1 X0.1 Y200.0 Z0.3 F1500.0 E15 ; Draw the first line
G1 X0.4 Y200.0 Z0.3 F5000.0 ; Move to side a little
G1 X0.4 Y20 Z0.3 F1500.0 E30 ; Draw the second line
G92 E0 ; Reset Extruder
G1 Z2.0 F3000 ; Move Z Axis up little to prevent scratching of Heat Bed
G1 X5 Y20 Z0.3 F5000.0 ; Move over to prevent blob squish
G92 E0
G92 E0
G1 F1500 E-6.5
;LAYER_COUNT:199
;LAYER:0
M107
;MESH:xyzCalibration_cube.stl
G0 F6000 X119.4 Y119.4 Z0.2
;TYPE:WALL-INNER
G1 F1500 E0
G1 F1200 X100.6 Y119.4 E0.62529
G1 X100.6 Y100.6 E1.25058
G1 X119.4 Y100.6 E1.87587
G1 X119.4 Y119.4 E2.50116
G0 F6000 X119.8 Y119.8
;TYPE:WALL-OUTER
G1 F1200 X100.2 Y119.8 E3.15306
G1 X100.2 Y100.2 E3.80496
G1 X119.8 Y100.2 E4.45686
G1 X119.8 Y119.8 E5.10876
G0 F6000 X119.53 Y119.53
G0 X119.29 Y119.01
G0 X119.01 Y119.01
;TYPE:SKIN
G1 F1200 X100.99 Y119.01 E5.7081
G1 X100.99 Y100.99 E6.30745
G1 X119.01 Y100.99 E6.9068
G1 X119.01 Y119.01 E7.50615
G0 F6000 X119.29 Y119.01
G0 X119.29 Y101.313
G0 X118.849 Y101.313
G1 F1200 X118.686 Y101.15 E7.51381
G0 F6000 X118.12 Y101.15
G1 F1200 X118.849 Y101.879 E7.5481
G0 F6000 X118.849 Y102.444
G1 F1200 X117.555 Y101.15 E7.60897
G0 F6000 X116.989 Y101.15
G1 F1200 X118.849 Y103.01 E7.69646
G0 F6000 X118.849 Y103.576
G1 F1200 X116.423 Y101.15 E7.81057
G0 F6000 X115.858 Y101.15
G1 F1200 X118.849 Y104.141 E7.95126
G0 F6000 X118.849 Y104.707
G1 F1200 X115.292 Y101.15 E8.11857
G0 F6000 X114.726 Y101.15
G1 F1200 X118.849 Y105.273 E8.3125
G0 F6000 X118.849 Y105.839
G1 F1200 X114.16 Y101.15 E8.53306
G0 F6000 X113.595 Y101.15
G1 F1200 X118.849 Y106.404 E8.78019
G0 F6000 X118.849 Y106.97
G1 F1200 X113.029 Y101.15 E9.05394
G0 F6000 X112.463 Y101.15
G1 F1200 X118.849 Y107.536 E9.35432
G0 F6000 X118.849 Y108.101
G1 F1200 X111.898 Y101.15 E9.68128
G0 F6000 X111.332 Y101.15
G1 F1200 X118.849 Y108.667 E10.03485
G0 F6000 X118.849 Y109.233
G1 F1200 X110.766 Y101.15 E10.41505
G0 F6000 X110.201 Y101.15
G1 F1200 X118.849 Y109.798 E10.82183
G0 F6000 X118.849 Y110.364
G1 F1200 X109.635 Y101.15 E11.25523
G0 F6000 X109.069 Y101.15
G1 F1200 X118.849 Y110.93 E11.71525
G0 F6000 X118.849 Y111.495
G1 F1200 X108.504 Y101.15 E12.20184
G0 F6000 X107.938 Y101.15
G1 F1200 X118.849 Y112.061 E12.71506
G0 F6000 X118.849 Y112.627
G1 F1200 X107.372 Y101.15 E13.25491
G0 F6000 X106.807 Y101.15
G1 F1200 X118.849 Y113.192 E13.82133
G0 F6000 X118.849 Y113.758
G1 F1200 X106.241 Y101.15 E14.41437
G0 F6000 X105.675 Y101.15
G1 F1200 X118.849 Y114.324 E15.03403
G0 F6000 X118.849 Y114.89
G1 F1200 X105.11 Y101.15 E15.6803
G0 F6000 X104.544 Y101.15
G1 F1200 X118.849 Y115.455 E16.35316
G0 F6000 X118.849 Y116.021
G1 F1200 X103.978 Y101.15 E17.05265
G0 F6000 X103.412 Y101.15
G1 F1200 X118.849 Y116.587 E17.77875
G0 F6000 X118.849 Y117.152
G1 F1200 X102.847 Y101.15 E18.53144
G0 F6000 X102.281 Y101.15
G1 F1200 X118.849 Y117.718 E19.31075
G0 F6000 X118.849 Y118.284
G1 F1200 X101.715 Y101.15 E20.11668
G0 F6000 X101.149 Y101.149
G1 F1200 X118.849 Y118.849 E20.94923
G0 F6000 X118.283 Y118.849
G1 F1200 X101.149 Y101.715 E21.75516
G0 F6000 X101.149 Y102.28
G1 F1200 X117.717 Y118.849 E22.53449
G0 F6000 X117.152 Y118.849
G1 F1200 X101.149 Y102.846 E23.28723
G0 F6000 X101.149 Y103.412
G1 F1200 X116.586 Y118.849 E24.01334
G0 F6000 X116.02 Y118.849
G1 F1200 X101.149 Y103.977 E24.71285
G0 F6000 X101.149 Y104.543
G1 F1200 X115.454 Y118.849 E25.38573
G0 F6000 X114.889 Y118.849
G1 F1200 X101.149 Y105.109 E26.03202
G0 F6000 X101.149 Y105.674
G1 F1200 X114.323 Y118.849 E26.65171
G0 F6000 X113.757 Y118.849
G1 F1200 X101.149 Y106.24 E27.24477
G0 F6000 X101.149 Y106.806
G1 F1200 X113.192 Y118.849 E27.81124
G0 F6000 X112.626 Y118.849
G1 F1200 X101.149 Y107.372 E28.35108
G0 F6000 X101.149 Y107.937
G1 F1200 X112.06 Y118.849 E28.86433
G0 F6000 X111.495 Y118.849
G1 F1200 X101.149 Y108.503 E29.35097
G0 F6000 X101.149 Y109.069
G1 F1200 X110.929 Y118.849 E29.81099
G0 F6000 X110.363 Y118.849
G1 F1200 X101.149 Y109.634 E30.24441
G0 F6000 X101.149 Y110.2
G1 F1200 X109.798 Y118.849 E30.65124
G0 F6000 X109.232 Y118.849
G1 F1200 X101.149 Y110.766 E31.03143
G0 F6000 X101.149 Y111.331
G1 F1200 X108.666 Y118.849 E31.38503
G0 F6000 X108.101 Y118.849
G1 F1200 X101.149 Y111.897 E31.71204
G0 F6000 X101.149 Y112.463
G1 F1200 X107.535 Y118.849 E32.01241
G0 F6000 X106.969 Y118.849
G1 F1200 X101.149 Y113.028 E32.28619
G0 F6000 X101.149 Y113.594
G1 F1200 X106.404 Y118.849 E32.53337
G0 F6000 X105.838 Y118.849
G1 F1200 X101.149 Y114.16 E32.75393
G0 F6000 X101.149 Y114.725
G1 F1200 X105.272 Y118.849 E32.94788
G0 F6000 X104.706 Y118.849
G1 F1200 X101.149 Y115.291 E33.11522
G0 F6000 X101.149 Y115.857
G1 F1200 X104.141 Y118.849 E33.25595
G0 F6000 X103.575 Y118.849
G1 F1200 X101.149 Y116.423 E33.37006
G0 F6000 X101.149 Y116.988
G1 F1200 X103.009 Y118.849 E33.45758
G0 F6000 X102.444 Y118.849
G1 F1200 X101.149 Y117.554 E33.51849
G0 F6000 X101.149 Y118.12
G1 F1200 X101.878 Y118.849 E33.55278
G0 F6000 X101.312 Y118.849
G1 F1200 X101.149 Y118.685 E33.56047
G0 F6000 X100.8 Y118.685
;MESH:NONMESH
G0 F300 X100.8 Y118.685 Z0.3
G0 F6000 X100.71 Y118.685
G0 X100.782 Y119.218
G0 X119.4 Y119.4
;TIME_ELAPSED:60.625897
;LAYER:1
M106 S85
;TYPE:WALL-INNER
;MESH:xyzCalibration_cube.stl
G1 F1350 X100.6 Y119.4 E33.87311
G1 X100.6 Y100.6 E34.18576
G1 X119.4 Y100.6 E34.49841
G1 X119.4 Y119.4 E34.81105
G0 F7500 X119.8 Y119.8
;TYPE:WALL-OUTER
G1 F1350 X100.2 Y119.8 E35.137
G1 X100.2 Y100.2 E35.46295
G1 X119.8 Y100.2 E35.7889
G1 X119.8 Y119.8 E36.11485
G0 F7500 X119.53 Y119.53
G0 X119.29 Y119.01
G0 X119.01 Y119.01
;TYPE:SKIN
G1 F1350 X100.99 Y119.01 E36.41452
G1 X100.99 Y100.99 E36.7142
G1 X119.01 Y100.99 E37.01387
G1 X119.01 Y119.01 E37.31354
G0 F7500 X118.738 Y118.849
G1 F1350 X118.849 Y118.738 E37.31615
G0 F7500 X118.849 Y118.173
G1 F1350 X118.172 Y118.849 E37.33206
G0 F7500 X117.606 Y118.849
G1 F1350 X118.849 Y117.607 E37.36129
G0 F7500 X118.849 Y117.041
G1 F1350 X117.041 Y118.849 E37.40381
G0 F7500 X116.475 Y118.849
G1 F1350 X118.849 Y116.476 E37.45963
G0 F7500 X118.849 Y115.91
G1 F1350 X115.909 Y118.849 E37.52876
G0 F7500 X115.343 Y118.849
G1 F1350 X118.849 Y115.344 E37.6112
G0 F7500 X118.849 Y114.778
G1 F1350 X114.778 Y118.849 E37.70695
G0 F7500 X114.212 Y118.849
G1 F1350 X118.849 Y114.213 E37.81599
G0 F7500 X118.849 Y113.647
G1 F1350 X113.646 Y118.849 E37.93835
G0 F7500 X113.081 Y118.849
G1 F1350 X118.849 Y113.081 E38.074
G0 F7500 X118.849 Y112.516
G1 F1350 X112.515 Y118.849 E38.22296
G0 F7500 X111.949 Y118.849
G1 F1350 X118.849 Y111.95 E38.38522
G0 F7500 X118.849 Y111.384
G1 F1350 X111.384 Y118.849 E38.56079
G0 F7500 X110.818 Y118.849
G1 F1350 X118.849 Y110.819 E38.74965
G0 F7500 X118.849 Y110.253
G1 F1350 X110.252 Y118.849 E38.95183
G0 F7500 X109.687 Y118.849
G1 F1350 X118.849 Y109.687 E39.1673
G0 F7500 X118.849 Y109.122
G1 F1350 X109.121 Y118.849 E39.39608
G0 F7500 X108.555 Y118.849
G1 F1350 X118.849 Y108.556 E39.63817
G0 F7500 X118.849 Y107.99
G1 F1350 X107.99 Y118.849 E39.89355
G0 F7500 X107.424 Y118.849
G1 F1350 X118.849 Y107.425 E40.16224
G0 F7500 X118.849 Y106.859
G1 F1350 X106.858 Y118.849 E40.44424
G0 F7500 X106.292 Y118.849
G1 F1350 X118.849 Y106.293 E40.73955
G0 F7500 X118.849 Y105.728
G1 F1350 X105.727 Y118.849 E41.04815
G0 F7500 X105.161 Y118.849
G1 F1350 X118.849 Y105.162 E41.37006
G0 F7500 X118.849 Y104.596
G1 F1350 X104.595 Y118.849 E41.70528
G0 F7500 X104.03 Y118.849
G1 F1350 X118.849 Y104.03 E42.0538
G0 F7500 X118.849 Y103.465
G1 F1350 X103.464 Y118.849 E42.41562
G0 F7500 X102.898 Y118.849
G1 F1350 X118.849 Y102.899 E42.79075
G0 F7500 X118.849 Y102.333
G1 F1350 X102.333 Y118.849 E43.17918
G0 F7500 X101.767 Y118.849
G1 F1350 X118.849 Y101.768 E43.58091
G0 F7500 X118.849 Y101.202
G1 F1350 X101.201 Y118.849 E43.99595
G0 F7500 X101.15 Y118.335
G1 F1350 X118.336 Y101.149 E44.40014
G0 F7500 X117.77 Y101.149
G1 F1350 X101.15 Y117.77 E44.79103
G0 F7500 X101.15 Y117.204
G1 F1350 X117.205 Y101.149 E45.16862
G0 F7500 X116.639 Y101.149
G1 F1350 X101.15 Y116.638 E45.53289
G0 F7500 X101.15 Y116.072
G1 F1350 X116.073 Y101.149 E45.88386
G0 F7500 X115.508 Y101.149
G1 F1350 X101.15 Y115.507 E46.22154
G0 F7500 X101.15 Y114.941
G1 F1350 X114.942 Y101.149 E46.54591
G0 F7500 X114.376 Y101.149
G1 F1350 X101.15 Y114.375 E46.85696
G0 F7500 X101.15 Y113.81
G1 F1350 X113.81 Y101.149 E47.15472
G0 F7500 X113.245 Y101.149
G1 F1350 X101.15 Y113.244 E47.43917
G0 F7500 X101.15 Y112.678
G1 F1350 X112.679 Y101.149 E47.71032
G0 F7500 X112.113 Y101.149
G1 F1350 X101.15 Y112.113 E47.96816
G0 F7500 X101.15 Y111.547
G1 F1350 X111.548 Y101.149 E48.21271
G0 F7500 X110.982 Y101.149
G1 F1350 X101.15 Y110.981 E48.44394
G0 F7500 X101.15 Y110.416
G1 F1350 X110.416 Y101.149 E48.66187
G0 F7500 X109.851 Y101.149
G1 F1350 X101.15 Y109.85 E48.86651
G0 F7500 X101.15 Y109.284
G1 F1350 X109.285 Y101.149 E49.05783
G0 F7500 X108.719 Y101.149
G1 F1350 X101.15 Y108.719 E49.23585
G0 F7500 X101.15 Y108.153
G1 F1350 X108.154 Y101.149 E49.40058
G0 F7500 X107.588 Y101.149
G1 F1350 X101.15 Y107.587 E49.55199
G0 F7500 X101.15 Y107.022
G1 F1350 X107.022 Y101.149 E49.6901
G0 F7500 X106.457 Y101.149
G1 F1350 X101.15 Y106.456 E49.81491
G0 F7500 X101.15 Y105.89
G1 F1350 X105.891 Y101.149 E49.92641
G0 F7500 X105.325 Y101.149
G1 F1350 X101.15 Y105.324 E50.0246
G0 F7500 X101.15 Y104.759
G1 F1350 X104.759 Y101.149 E50.10949
G0 F7500 X104.194 Y101.149
G1 F1350 X101.15 Y104.193 E50.18108
G0 F7500 X101.15 Y103.627
G1 F1350 X103.628 Y101.149 E50.23936
G0 F7500 X103.062 Y101.149
G1 F1350 X101.15 Y103.062 E50.28434
G0 F7500 X101.15 Y102.496
G1 F1350 X102.497 Y101.149 E50.31602
G0 F7500 X101.931 Y101.149
G1 F1350 X101.15 Y101.93 E50.33439
G0 F7500 X101.15 Y101.365
G1 F1350 X101.365 Y101.149 E50.33946
G0 F7500 X101.365 Y100.8
G1 F1500 E43.83946
;MESH:NONMESH
G0 F300 X101.365 Y100.8 Z0.4
G0 F7500 X101.365 Y100.71
G0 X119.218 Y100.782
G0 X119.4 Y119.4
;TIME_ELAPSED:111.710107
;LAYER:2
M106 S170
;TYPE:WALL-INNER
;MESH:xyzCalibration_cube.stl
G1 F1500 E50.33946
G1 X100.6 Y119.4 E50.6521
G1 X100.6 Y100.6 E50.96475
G1 X119.4 Y100.6 E51.27739
G1 X119.4 Y119.4 E51.59004
G0 F9000 X119.8 Y119.8
;TYPE:WALL-OUTER
G1 F1500 X100.2 Y119.8 E51.91599
G1 X100.2 Y100.2 E52.24194
G1 X119.8 Y100.2 E52.56789
G1 X119.8 Y119.8 E52.89384
G0 F9000 X119.53 Y119.53
G0 X119.29 Y119.01
G0 X119.01 Y119.01
;TYPE:SKIN
G1 F1500 X100.99 Y119.01 E53.19351
G1 X100.99 Y100.99 E53.49318
G1 X119.01 Y100.99 E53.79286
G1 X119.01 Y119.01 E54.09253
G0 F9000 X119.29 Y119.01
G0 X119.29 Y101.313
G0 X118.849 Y101.313
G1 F1500 X118.686 Y101.15 E54.09637
G0 F9000 X118.12 Y101.15
G1 F1500 X118.849 Y101.879 E54.11351
G0 F9000 X118.849 Y102.444
G1 F1500 X117.555 Y101.15 E54.14394
G0 F9000 X116.989 Y101.15
G1 F1500 X118.849 Y103.01 E54.18769
G0 F9000 X118.849 Y103.576
G1 F1500 X116.423 Y101.15 E54.24474
G0 F9000 X115.858 Y101.15
G1 F1500 X118.849 Y104.141 E54.31509
G0 F9000 X118.849 Y104.707
G1 F1500 X115.292 Y101.15 E54.39874
G0 F9000 X114.726 Y101.15
G1 F1500 X118.849 Y105.273 E54.49571
G0 F9000 X118.849 Y105.839
G1 F1500 X114.16 Y101.15 E54.60599
G0 F9000 X113.595 Y101.15
G1 F1500 X118.849 Y106.404 E54.72955
G0 F9000 X118.849 Y106.97
G1 F1500 X113.029 Y101.15 E54.86643
G0 F9000 X112.463 Y101.15
G1 F1500 X118.849 Y107.536 E55.01662
G0 F9000 X118.849 Y108.101
G1 F1500 X111.898 Y101.15 E55.1801
G0 F9000 X111.332 Y101.15
G1 F1500 X118.849 Y108.667 E55.35688
G0 F9000 X118.849 Y109.233
G1 F1500 X110.766 Y101.15 E55.54698
G0 F9000 X110.201 Y101.15
G1 F1500 X118.849 Y109.798 E55.75037
G0 F9000 X118.849 Y110.364
G1 F1500 X109.635 Y101.15 E55.96707
G0 F9000 X109.069 Y101.15
G1 F1500 X118.849 Y110.93 E56.19708
G0 F9000 X118.849 Y111.495
G1 F1500 X108.504 Y101.15 E56.44038
G0 F9000 X107.938 Y101.15
G1 F1500 X118.849 Y112.061 E56.69699
G0 F9000 X118.849 Y112.627
G1 F1500 X107.372 Y101.15 E56.96691
G0 F9000 X106.807 Y101.15
G1 F1500 X118.849 Y113.192 E57.25012
G0 F9000 X118.849 Y113.758
G1 F1500 X106.241 Y101.15 E57.54664
G0 F9000 X105.675 Y101.15
G1 F1500 X118.849 Y114.324 E57.85647
G0 F9000 X118.849 Y114.89
G1 F1500 X105.11 Y101.15 E58.17961
G0 F9000 X104.544 Y101.15
G1 F1500 X118.849 Y115.455 E58.51604
G0 F9000 X118.849 Y116.021
G1 F1500 X103.978 Y101.15 E58.86578
G0 F9000 X103.412 Y101.15
G1 F1500 X118.849 Y116.587 E59.22884
G0 F9000 X118.849 Y117.152
G1 F1500 X102.847 Y101.15 E59.60518
G0 F9000 X102.281 Y101.15
G1 F1500 X118.849 Y117.718 E59.99483
G0 F9000 X118.849 Y118.284
G1 F1500 X101.715 Y101.15 E60.3978
G0 F9000 X101.149 Y101.149
G1 F1500 X118.849 Y118.849 E60.81407
G0 F9000 X118.283 Y118.849
G1 F1500 X101.149 Y101.715 E61.21704
G0 F9000 X101.149 Y102.28
G1 F1500 X117.717 Y118.849 E61.60671
G0 F9000 X117.152 Y118.849
G1 F1500 X101.149 Y102.846 E61.98307
G0 F9000 X101.149 Y103.412
G1 F1500 X116.586 Y118.849 E62.34613
G0 F9000 X116.02 Y118.849
G1 F1500 X101.149 Y103.977 E62.69588
G0 F9000 X101.149 Y104.543
G1 F1500 X115.454 Y118.849 E63.03232
G0 F9000 X114.889 Y118.849
G1 F1500 X101.149 Y105.109 E63.35547
G0 F9000 X101.149 Y105.674
G1 F1500 X114.323 Y118.849 E63.66531
G0 F9000 X113.757 Y118.849
G1 F1500 X101.149 Y106.24 E63.96184
G0 F9000 X101.149 Y106.806
G1 F1500 X113.192 Y118.849 E64.24508
G0 F9000 X112.626 Y118.849
G1 F1500 X101.149 Y107.372 E64.515
G0 F9000 X101.149 Y107.937
G1 F1500 X112.06 Y118.849 E64.77162
G0 F9000 X111.495 Y118.849
G1 F1500 X101.149 Y108.503 E65.01494
G0 F9000 X101.149 Y109.069
G1 F1500 X110.929 Y118.849 E65.24495
G0 F9000 X110.363 Y118.849
G1 F1500 X101.149 Y109.634 E65.46166
G0 F9000 X101.149 Y110.2
G1 F1500 X109.798 Y118.849 E65.66508
G0 F9000 X109.232 Y118.849
G1 F1500 X101.149 Y110.766 E65.85518
G0 F9000 X101.149 Y111.331
G1 F1500 X108.666 Y118.849 E66.03198
G0 F9000 X108.101 Y118.849
G1 F1500 X101.149 Y111.897 E66.19548
G0 F9000 X101.149 Y112.463
G1 F1500 X107.535 Y118.849 E66.34566
G0 F9000 X106.969 Y118.849
G1 F1500 X101.149 Y113.028 E66.48255
G0 F9000 X101.149 Y113.594
G1 F1500 X106.404 Y118.849 E66.60614
G0 F9000 X105.838 Y118.849
G1 F1500 X101.149 Y114.16 E66.71642
G0 F9000 X101.149 Y114.725
G1 F1500 X105.272 Y118.849 E66.8134
G0 F9000 X104.706 Y118.849
G1 F1500 X101.149 Y115.291 E66.89707
G0 F9000 X101.149 Y115.857
G1 F1500 X104.141 Y118.849 E66.96743
G0 F9000 X103.575 Y118.849
G1 F1500 X101.149 Y116.423 E67.02449
G0 F9000 X101.149 Y116.988
G1 F1500 X103.009 Y118.849 E67.06825
G0 F9000 X102.444 Y118.849
G1 F1500 X101.149 Y117.554 E67.0987
G0 F9000 X101.149 Y118.12
G1 F1500 X101.878 Y118.849 E67.11585
G0 F9000 X101.312 Y118.849
G1 F1500 X101.149 Y118.685 E67.11969
G0 F9000 X100.8 Y118.685
;MESH:NONMESH
G0 F300 X100.8 Y118.685 Z0.5
G0 F9000 X100.71 Y118.685
G0 X100.782 Y119.218
G0 X119.4 Y119.4
;TIME_ELAPSED:158.749373
;LAYER:3
M106 S255
;TYPE:WALL-INNER
;MESH:xyzCalibration_cube.stl
G1 F1500 X100.6 Y119.4 E67.43234
G1 X100.6 Y100.6 E67.74498
G1 X119.4 Y100.6 E68.05763
G1 X119.4 Y119.4 E68.37027
G0 F9000 X119.8 Y119.8
;TYPE:WALL-OUTER
G1 F1500 X100.2 Y119.8 E68.69622
G1 X100.2 Y100.2 E69.02217
G1 X119.8 Y100.2 E69.34812
G1 X119.8 Y119.8 E69.67407
G0 F9000 X119.53 Y119.53
G0 X119.29 Y119.01
G0 X119.01 Y119.01
;TYPE:SKIN
G1 F1500 X100.99 Y119.01 E69.97374
G1 X100.99 Y100.99 E70.27342
G1 X119.01 Y100.99 E70.57309
G1 X119.01 Y119.01 E70.87277
